assets/icons/24px/outline/hot-brew-24px.svg

<svg width="24" height="24" viewBox="0 0 24 24" fill="none" xmlns="http://www.w3.org/2000/svg">
<path d="M3 12.4286C3 12.0296 3 11.8301 3.05612 11.6697C3.15663 11.3825 3.38247 11.1566 3.66972 11.0561C3.83009 11 4.02959 11 4.42857 11H14.5714C14.9704 11 15.1699 11 15.3303 11.0561C15.6175 11.1566 15.8434 11.3825 15.9439 11.6697C16 11.8301 16 12.0296 16 12.4286V14.5C16 14.9643 16 15.1964 15.9872 15.3924C15.7902 18.397 13.397 20.7902 10.3924 20.9872C10.1964 21 9.96428 21 9.5 21V21C9.03572 21 8.80358 21 8.60758 20.9872C5.60304 20.7902 3.20977 18.397 3.01285 15.3924C3 15.1964 3 14.9643 3 14.5V12.4286Z" stroke="white" stroke-width="2" stroke-linecap="round"/>
<path d="M12 11L17.2222 11C18.7563 11 20 12.2508 20 13.9077C20 15.5646 18.7563 17 17.2222 17H16.1111" stroke="white" stroke-width="2"/>
<path d="M6.1875 3L6.08156 3.21189C5.82829 3.71841 5.70166 3.97167 5.71839 4.24029C5.73511 4.50892 5.89218 4.74452 6.20631 5.21572L6.26991 5.31112C6.53636 5.71079 6.66959 5.91063 6.70031 6.14002C6.73103 6.36942 6.65508 6.59727 6.50318 7.05297L6.1875 8" stroke="white" stroke-width="2" stroke-linecap="round"/>
<path d="M14.3125 3L14.2066 3.21189C13.9533 3.71841 13.8267 3.97167 13.8434 4.24029C13.8601 4.50892 14.0172 4.74452 14.3313 5.21572L14.3949 5.31112C14.6614 5.71079 14.7946 5.91063 14.8253 6.14002C14.856 6.36942 14.7801 6.59727 14.6282 7.05297L14.3125 8" stroke="white" stroke-width="2" stroke-linecap="round"/>
</svg>

<svg width="24" height="24" fill="none" xmlns="http://www.w3.org/2000/svg"><path d="M3 12.429c0-.4 0-.599.056-.76a1 1 0 0 1 .614-.613C3.83 11 4.03 11 4.429 11H14.57c.4 0 .599 0 .76.056a1 1 0 0 1 .613.614c.056.16.056.36.056.759V14.5c0 .464 0 .696-.013.892a6 6 0 0 1-5.595 5.595C10.196 21 9.964 21 9.5 21s-.696 0-.892-.013a6 6 0 0 1-5.595-5.595C3 15.196 3 14.964 3 14.5v-2.071z" stroke="#fff" stroke-width="2" stroke-linecap="round"/><path d="M12 11h5.222C18.756 11 20 12.25 20 13.908 20 15.565 18.756 17 17.222 17h-1.11" stroke="#fff" stroke-width="2"/><path d="M6.188 3l-.106.212c-.254.506-.38.76-.364 1.028.017.269.174.505.488.976l.064.095c.266.4.4.6.43.829.031.23-.045.457-.197.913L6.187 8m8.125-5l-.105.212c-.254.506-.38.76-.364 1.028.017.269.174.505.488.976l.064.095c.266.4.4.6.43.829.031.23-.045.457-.197.913L14.312 8" stroke="#fff" stroke-width="2" stroke-linecap="round"/></svg>
